X: 37142
T: Siobhainin Seo
R: slip jig
M: 9/8
K: Amajor
|:efe e2c d3|efe e2a ged|efe e2d c3|cBc ABA A(c/B/)A:|
|:AEA BAB c2B|AEA A2a ged|AEA A2B c3|cBc ABA A(c/B/)A:|

